src/assets/duotone/MusicSquareRemove.svg

<svg width="24" height="24" viewBox="0 0 24 24"  xmlns="http://www.w3.org/2000/svg">
<path d="M21.97 16.33C21.25 15.51 20.18 15 19 15C16.79 15 15 16.79 15 19C15 19.75 15.21 20.46 15.58 21.06C15.78 21.4 16.04 21.71 16.34 21.97C17.04 22.61 17.97 23 19 23C20.46 23 21.73 22.22 22.42 21.06C22.79 20.46 23 19.75 23 19C23 17.98 22.61 17.04 21.97 16.33ZM20.6 20.58C20.45 20.73 20.26 20.8 20.07 20.8C19.88 20.8 19.69 20.73 19.54 20.58L19.01 20.05L18.46 20.6C18.31 20.75 18.12 20.82 17.93 20.82C17.74 20.82 17.55 20.75 17.4 20.6C17.11 20.31 17.11 19.83 17.4 19.54L17.95 18.99L17.42 18.46C17.13 18.17 17.13 17.69 17.42 17.4C17.71 17.11 18.19 17.11 18.48 17.4L19.01 17.93L19.51 17.43C19.8 17.14 20.28 17.14 20.57 17.43C20.86 17.72 20.86 18.2 20.57 18.49L20.07 18.99L20.6 19.52C20.89 19.81 20.89 20.28 20.6 20.58Z" />
<path opacity="0.4" d="M16.34 21.97C16.04 21.71 15.78 21.4 15.58 21.06C15.21 20.46 15 19.75 15 19C15 16.79 16.79 15 19 15C20.18 15 21.25 15.51 21.97 16.33C21.98 16.34 21.98 16.35 21.99 16.35C21.99 16.29 22 16.24 22 16.19V7.81C22 4.17 19.83 2 16.19 2H7.81C7.53 2 7.26 2.00999 7 2.04999C3.85 2.33999 2 4.45 2 7.81V16.19C2 19.55 3.85 21.66 7 21.95C7.26 21.99 7.53 22 7.81 22H16.19C16.25 22 16.3 21.99 16.36 21.99C16.36 21.98 16.35 21.98 16.34 21.97Z" />
<path d="M13.7798 5.3C13.4598 5.05 12.8798 4.81001 11.9598 5.06001L8.97979 5.88002C8.08979 6.11002 7.50979 6.86 7.50979 7.8V9.55V11.71C7.27979 11.63 7.02978 11.57 6.76978 11.57C5.52978 11.57 4.52979 12.58 4.52979 13.81C4.52979 15.04 5.53978 16.05 6.76978 16.05C7.98978 16.05 8.98979 15.06 9.00979 13.85C9.00979 13.84 9.01978 13.83 9.01978 13.82V10.12L12.9898 9.03999V10.72C12.7598 10.64 12.5098 10.58 12.2398 10.58C10.9998 10.58 9.99979 11.59 9.99979 12.82C9.99979 14.06 11.0098 15.06 12.2398 15.06C13.4598 15.06 14.4598 14.07 14.4798 12.85C14.4798 12.84 14.4898 12.83 14.4898 12.81V8.05V6.97999C14.4798 6.21999 14.2398 5.65 13.7798 5.3ZM6.75979 14.55C6.34979 14.55 6.01978 14.22 6.01978 13.81C6.01978 13.4 6.34979 13.07 6.75979 13.07C7.16979 13.07 7.49979 13.4 7.49979 13.81C7.49979 14.22 7.16979 14.55 6.75979 14.55ZM12.2298 13.55C11.8198 13.55 11.4898 13.22 11.4898 12.81C11.4898 12.4 11.8198 12.07 12.2298 12.07C12.6398 12.07 12.9698 12.4 12.9698 12.81C12.9698 13.22 12.6398 13.55 12.2298 13.55Z" />
</svg>

<?xml version="1.0" encoding="UTF-8"?>
<svg width="24" height="24" viewBox="0 0 24 24" xmlns="http://www.w3.org/2000/svg">
 <path d="m21.97 16.33c-0.72-0.82-1.79-1.33-2.97-1.33-2.21 0-4 1.79-4 4 0 0.75 0.21 1.46 0.58 2.06 0.2 0.34 0.46 0.65 0.76 0.91 0.7 0.64 1.63 1.03 2.66 1.03 1.46 0 2.73-0.78 3.42-1.94 0.37-0.6 0.58-1.31 0.58-2.06 0-1.02-0.39-1.96-1.03-2.67zm-1.37 4.25c-0.15 0.15-0.34 0.22-0.53 0.22s-0.38-0.07-0.53-0.22l-0.53-0.53-0.55 0.55c-0.15 0.15-0.34 0.22-0.53 0.22s-0.38-0.07-0.53-0.22c-0.29-0.29-0.29-0.77 0-1.06l0.55-0.55-0.53-0.53c-0.29-0.29-0.29-0.77 0-1.06s0.77-0.29 1.06 0l0.53 0.53 0.5-0.5c0.29-0.29 0.77-0.29 1.06 0s0.29 0.77 0 1.06l-0.5 0.5 0.53 0.53c0.29 0.29 0.29 0.76 0 1.06z"/>
 <path d="m16.34 21.97c-0.3-0.26-0.56-0.57-0.76-0.91-0.37-0.6-0.58-1.31-0.58-2.06 0-2.21 1.79-4 4-4 1.18 0 2.25 0.51 2.97 1.33 0.01 0.01 0.01 0.02 0.02 0.02 0-0.06 0.01-0.11 0.01-0.16v-8.38c0-3.64-2.17-5.81-5.81-5.81h-8.38c-0.28 0-0.55 0.00999-0.81 0.04999-3.15 0.29-5 2.4-5 5.76v8.38c0 3.36 1.85 5.47 5 5.76 0.26 0.04 0.53 0.05 0.81 0.05h8.38c0.06 0 0.11-0.01 0.17-0.01 0-0.01-0.01-0.01-0.02-0.02z" opacity=".4"/>
 <path d="m13.78 5.3c-0.32-0.25-0.9-0.48999-1.82-0.23999l-2.98 0.82001c-0.89 0.23-1.47 0.97998-1.47 1.92v3.91c-0.23-0.08-0.48001-0.14-0.74001-0.14-1.24 0-2.24 1.01-2.24 2.24s1.01 2.24 2.24 2.24c1.22 0 2.22-0.99 2.24-2.2 0-0.01 0.00999-0.02 0.00999-0.03v-3.7l3.97-1.08v1.68c-0.23-0.08-0.48-0.14-0.75-0.14-1.24 0-2.24 1.01-2.24 2.24 0 1.24 1.01 2.24 2.24 2.24 1.22 0 2.22-0.99 2.24-2.21 0-0.01 0.01-0.02 0.01-0.04v-5.83c-0.01-0.76-0.25-1.33-0.71-1.68zm-7.02 9.25c-0.41 0-0.74001-0.33-0.74001-0.74s0.33001-0.74 0.74001-0.74 0.74 0.33 0.74 0.74-0.33 0.74-0.74 0.74zm5.47-1c-0.41 0-0.74-0.33-0.74-0.74s0.33-0.74 0.74-0.74 0.74 0.33 0.74 0.74-0.33 0.74-0.74 0.74z"/>
</svg>
